; generated by Slic3r 1.2.9 on 2016-09-13 at 00:08:31

; external perimeters extrusion width = 0.40mm
; perimeters extrusion width = 0.67mm
; infill extrusion width = 0.67mm
; solid infill extrusion width = 0.67mm
; top infill extrusion width = 0.67mm

M190 S65 ; set bed temperature
M104 S195 ; set temperature
M404 N1.77 D0.4
G28 X Y
; Home xy
G32; Home Z (by probing z plane)
M109 S195 ; wait for temperature to be reached
G21 ; set units to millimeters
G90 ; use absolute coordinates
M82 ; use absolute distances for extrusion
G92 E0
G1 Z0.300 F9000.000
G1 E-1.00000 F2400.00000
G92 E0
G1 X56.528 Y99.187 F9000.000
G1 E1.00000 F2400.00000
G1 X58.693 Y98.356 E1.10466 F1800.000
G1 X60.000 Y98.229 E1.16392
G1 X100.000 Y98.229 E2.96933
G1 X102.285 Y98.626 E3.07399
G1 X104.301 Y99.770 E3.17865 F1800.000
G1 X105.813 Y101.528 E3.28331
G1 X106.644 Y103.693 E3.38797
G1 X106.771 Y105.000 E3.44723
G1 X106.771 Y145.000 E5.25263
G1 X106.374 Y147.285 E5.35730
G1 X105.230 Y149.301 E5.46196
G1 X103.472 Y150.813 E5.56662
G1 X101.307 Y151.644 E5.67128
G1 X100.000 Y151.771 E5.73054
G1 X60.000 Y151.771 E7.53594
G1 X57.715 Y151.374 E7.64060
G1 X55.699 Y150.230 E7.74526
G1 X54.187 Y148.472 E7.84993
G1 X53.356 Y146.307 E7.95459
G1 X53.229 Y145.000 E8.01384
G1 X53.229 Y105.000 E9.81925
G1 X53.626 Y102.715 E9.92391
G1 X54.770 Y100.699 E10.02857
G1 X56.483 Y99.226 E10.13053
G1 X56.790 Y99.507 F9000.000
G1 X56.896 Y99.419 E10.13675 F1800.000
G1 X60.000 Y98.614 E10.28147
G1 X100.000 Y98.614 E12.08687
G1 X102.216 Y99.011 E12.18849
G1 X104.157 Y100.153 E12.29010 F1800.000
G1 X105.581 Y101.896 E12.39172
G1 X106.386 Y105.000 E12.53643
G1 X106.386 Y145.000 E14.34184
G1 X105.989 Y147.216 E14.44346
G1 X104.847 Y149.157 E14.54507
G1 X103.104 Y150.581 E14.64668
G1 X100.000 Y151.386 E14.79140
G1 X60.000 Y151.386 E16.59681
G1 X57.784 Y150.989 E16.69842
G1 X55.843 Y149.847 E16.80004
G1 X54.419 Y148.104 E16.90165
G1 X53.614 Y145.000 E17.04637
G1 X53.614 Y105.000 E18.85178
G1 X54.011 Y102.784 E18.95339
G1 X55.153 Y100.843 E19.05501
G1 X56.743 Y99.544 E19.14769
G1 E18.14769 F2400.00000
G92 E0
G1 X99.389 Y144.389 F9000.000
G1 E1.00000 F2400.00000
G1 X60.611 Y144.389 E2.75029 F1800.000
G1 X60.611 Y105.611 E4.50057
G1 X99.389 Y105.611 E6.25086
G1 X99.389 Y144.329 E7.99843
G1 X99.775 Y144.775 F9000.000
G1 X60.225 Y144.775 E9.78353 F1800.000
G1 X60.225 Y105.225 E11.56863
G1 X99.775 Y105.225 E13.35372
G1 X99.775 Y144.715 E15.13611
G1 X99.429 Y144.575 F9000.000
G1 X99.106 Y106.098 F9000.000
G1 X98.902 Y105.894 E15.14914 F1800.000
G1 X98.355 Y105.894 E15.17389
G1 X99.106 Y106.645 E15.22193
G1 X99.106 Y107.192 E15.24668
G1 X97.808 Y105.894 E15.32973
G1 X97.261 Y105.894 E15.35448
G1 X99.106 Y107.739 E15.47252
G1 X99.106 Y108.286 E15.49728
G1 X96.714 Y105.894 E15.65033
G1 X96.168 Y105.894 E15.67508
G1 X99.106 Y108.832 E15.86314
G1 X99.106 Y109.379 E15.88789
G1 X95.621 Y105.894 E16.11095
G1 X95.074 Y105.894 E16.13570
G1 X99.106 Y109.926 E16.39377
G1 X99.106 Y110.473 E16.41852
G1 X94.527 Y105.894 E16.71159
G1 X93.980 Y105.894 E16.73634
G1 X99.106 Y111.020 E17.06442
G1 X99.106 Y111.567 E17.08917
G1 X93.433 Y105.894 E17.45225
G1 X92.886 Y105.894 E17.47700
G1 X99.106 Y112.114 E17.87509
G1 X99.106 Y112.660 E17.89984
G1 X92.340 Y105.894 E18.33293
G1 X91.793 Y105.894 E18.35768
G1 X99.106 Y113.207 E18.82578
G1 X99.106 Y113.754 E18.85053
G1 X91.246 Y105.894 E19.35363
G1 X90.699 Y105.894 E19.37838
G1 X99.106 Y114.301 E19.91649
G1 X99.106 Y114.848 E19.94124
G1 X90.152 Y105.894 E20.51435
G1 X89.605 Y105.894 E20.53910
G1 X99.106 Y115.395 E21.14722
G1 X99.106 Y115.942 E21.17197
G1 X89.058 Y105.894 E21.81509
G1 X88.511 Y105.894 E21.83984
G1 X99.106 Y116.489 E22.51796
G1 X99.106 Y117.035 E22.54271
G1 X87.965 Y105.894 E23.25584
G1 X87.418 Y105.894 E23.28060
G1 X99.106 Y117.582 E24.02873
G1 X99.106 Y118.129 E24.05348
G1 X86.871 Y105.894 E24.83662
G1 X86.324 Y105.894 E24.86137
G1 X99.106 Y118.676 E25.67951
G1 X99.106 Y119.223 E25.70427
G1 X85.777 Y105.894 E26.55741
G1 X85.230 Y105.894 E26.58217
G1 X99.106 Y119.770 E27.47032
G1 X99.106 Y120.317 E27.49507
G1 X84.683 Y105.894 E28.41823
G1 X84.136 Y105.894 E28.44298
G1 X99.106 Y120.864 E29.40114
G1 X99.106 Y121.410 E29.42589
G1 X83.590 Y105.894 E30.41906
G1 X83.043 Y105.894 E30.44381
G1 X99.106 Y121.957 E31.47198
G1 X99.106 Y122.504 E31.49674
G1 X82.496 Y105.894 E32.55991
G1 X81.949 Y105.894 E32.58467
G1 X99.106 Y123.051 E33.68285
G1 X99.106 Y123.598 E33.70760
G1 X81.402 Y105.894 E34.84078
G1 X80.855 Y105.894 E34.86554
G1 X99.106 Y124.145 E36.03373
G1 X99.106 Y124.692 E36.05848
G1 X80.308 Y105.894 E37.26168
G1 X79.761 Y105.894 E37.28643
G1 X99.106 Y125.239 E38.52463
G1 X99.106 Y125.785 E38.54938
G1 X79.215 Y105.894 E39.82259
G1 X78.668 Y105.894 E39.84734
G1 X99.106 Y126.332 E41.15555
G1 X99.106 Y126.879 E41.18030
G1 X78.121 Y105.894 E42.52351
G1 X77.574 Y105.894 E42.54827
G1 X99.106 Y127.426 E43.92649
G1 X99.106 Y127.973 E43.95124
G1 X77.027 Y105.894 E45.36446
G1 X76.480 Y105.894 E45.38922
G1 X99.106 Y128.520 E46.83744
G1 X99.106 Y129.067 E46.86220
G1 X75.933 Y105.894 E48.34543
G1 X75.386 Y105.894 E48.37018
G1 X99.106 Y129.614 E49.88842
G1 X99.106 Y130.160 E49.91317
G1 X74.840 Y105.894 E51.46642
G1 X74.293 Y105.894 E51.49117
G1 X99.106 Y130.707 E53.07942
G1 X99.106 Y131.254 E53.10417
G1 X73.746 Y105.894 E54.72742
G1 X73.199 Y105.894 E54.75218
G1 X99.106 Y131.801 E56.41043
G1 X99.106 Y132.348 E56.43519
G1 X72.652 Y105.894 E58.12845
G1 X72.105 Y105.894 E58.15320
G1 X99.106 Y132.895 E59.88147
G1 X99.106 Y133.442 E59.90622
G1 X71.558 Y105.894 E61.66949
G1 X71.012 Y105.894 E61.69424
G1 X99.106 Y133.988 E63.49252
G1 X99.106 Y134.535 E63.51727
G1 X70.465 Y105.894 E65.35056
G1 X69.918 Y105.894 E65.37531
G1 X99.106 Y135.082 E67.24360
G1 X99.106 Y135.629 E67.26835
G1 X69.371 Y105.894 E69.17164
G1 X68.824 Y105.894 E69.19639
G1 X99.106 Y136.176 E71.13469
G1 X99.106 Y136.723 E71.15944
G1 X68.277 Y105.894 E73.13274
G1 X67.730 Y105.894 E73.15749
G1 X99.106 Y137.270 E75.16580
G1 X99.106 Y137.817 E75.19055
G1 X67.183 Y105.894 E77.23386
G1 X66.637 Y105.894 E77.25861
G1 X99.106 Y138.363 E79.33693
G1 X99.106 Y138.910 E79.36168
G1 X66.090 Y105.894 E81.47500
G1 X65.543 Y105.894 E81.49975
G1 X99.106 Y139.457 E83.64808
G1 X99.106 Y140.004 E83.67283
G1 X64.996 Y105.894 E85.85616
G1 X64.449 Y105.894 E85.88091
G1 X99.106 Y140.551 E88.09925
G1 X99.106 Y141.098 E88.12400
G1 X63.902 Y105.894 E90.37734
G1 X63.355 Y105.894 E90.40209
G1 X99.106 Y141.645 E92.69044
G1 X99.106 Y142.192 E92.71519
G1 X62.808 Y105.894 E95.03854
G1 X62.262 Y105.894 E95.06329
G1 X99.106 Y142.738 E97.42164
G1 X99.106 Y143.285 E97.44640
G1 X61.715 Y105.894 E99.83975
G1 X61.168 Y105.894 E99.86451
G1 X99.106 Y143.832 E102.29287
G1 X98.832 Y144.106 E102.31037
G1 X60.894 Y106.168 E104.73873
G1 X60.894 Y106.715 E104.76348
G1 X98.285 Y144.106 E107.15684
G1 X97.738 Y144.106 E107.18159
G1 X60.894 Y107.262 E109.53994
G1 X60.894 Y107.809 E109.56469
G1 X97.191 Y144.106 E111.88803
G1 X96.645 Y144.106 E111.91278
G1 X60.894 Y108.355 E114.20112
G1 X60.894 Y108.902 E114.22587
G1 X96.098 Y144.106 E116.47921
G1 X95.551 Y144.106 E116.50396
G1 X60.894 Y109.449 E118.72229
G1 X60.894 Y109.996 E118.74704
G1 X95.004 Y144.106 E120.93037
G1 X94.457 Y144.106 E120.95512
G1 X60.894 Y110.543 E123.10344
G1 X60.894 Y111.090 E123.12819
G1 X93.910 Y144.106 E125.24150
G1 X93.363 Y144.106 E125.26626
G1 X60.894 Y111.637 E127.34457
G1 X60.894 Y112.183 E127.36932
G1 X92.817 Y144.106 E129.41262
G1 X92.270 Y144.106 E129.43738
G1 X60.894 Y112.730 E131.44568
G1 X60.894 Y113.277 E131.47043
G1 X91.723 Y144.106 E133.44372
G1 X91.176 Y144.106 E133.46847
G1 X60.894 Y113.824 E135.40677
G1 X60.894 Y114.371 E135.43152
G1 X90.629 Y144.106 E137.33480
G1 X90.082 Y144.106 E137.35956
G1 X60.894 Y114.918 E139.22784
G1 X60.894 Y115.465 E139.25259
G1 X89.535 Y144.106 E141.08586
G1 X88.988 Y144.106 E141.11062
G1 X60.894 Y116.012 E142.90889
G1 X60.894 Y116.558 E142.93364
G1 X88.442 Y144.106 E144.69691
G1 X87.895 Y144.106 E144.72166
G1 X60.894 Y117.105 E146.44992
G1 X60.894 Y117.652 E146.47467
G1 X87.348 Y144.106 E148.16793
G1 X86.801 Y144.106 E148.19268
G1 X60.894 Y118.199 E149.85093
G1 X60.894 Y118.746 E149.87569
G1 X86.254 Y144.106 E151.49893
G1 X85.707 Y144.106 E151.52369
G1 X60.894 Y119.293 E153.11193
G1 X60.894 Y119.840 E153.13668
G1 X85.160 Y144.106 E154.68992
G1 X84.613 Y144.106 E154.71467
G1 X60.894 Y120.387 E156.23290
G1 X60.894 Y120.933 E156.25766
G1 X84.067 Y144.106 E157.74088
G1 X83.520 Y144.106 E157.76564
G1 X60.894 Y121.480 E159.21386
G1 X60.894 Y122.027 E159.23861
G1 X82.973 Y144.106 E160.65183
G1 X82.426 Y144.106 E160.67658
G1 X60.894 Y122.574 E162.05480
G1 X60.894 Y123.121 E162.07955
G1 X81.879 Y144.106 E163.42276
G1 X81.332 Y144.106 E163.44751
G1 X60.894 Y123.668 E164.75571
G1 X60.894 Y124.215 E164.78047
G1 X80.785 Y144.106 E166.05367
G1 X80.238 Y144.106 E166.07842
G1 X60.894 Y124.762 E167.31661
G1 X60.894 Y125.308 E167.34136
G1 X79.692 Y144.106 E168.54455
G1 X79.145 Y144.106 E168.56931
G1 X60.894 Y125.855 E169.73749
G1 X60.894 Y126.402 E169.76224
G1 X78.598 Y144.106 E170.89542
G1 X78.051 Y144.106 E170.92018
G1 X60.894 Y126.949 E172.01835
G1 X60.894 Y127.496 E172.04310
G1 X77.504 Y144.106 E173.10627
G1 X76.957 Y144.106 E173.13103
G1 X60.894 Y128.043 E174.15919
G1 X60.894 Y128.590 E174.18394
G1 X76.410 Y144.106 E175.17711
G1 X75.863 Y144.106 E175.20186
G1 X60.894 Y129.137 E176.16001
G1 X60.894 Y129.683 E176.18477
G1 X75.317 Y144.106 E177.10792
G1 X74.770 Y144.106 E177.13267
G1 X60.894 Y130.230 E178.02082
G1 X60.894 Y130.777 E178.04557
G1 X74.223 Y144.106 E178.89871
G1 X73.676 Y144.106 E178.92346
G1 X60.894 Y131.324 E179.74160
G1 X60.894 Y131.871 E179.76635
G1 X73.129 Y144.106 E180.54948
G1 X72.582 Y144.106 E180.57424
G1 X60.894 Y132.418 E181.32236
G1 X60.894 Y132.965 E181.34711
G1 X72.035 Y144.106 E182.06024
G1 X71.488 Y144.106 E182.08499
G1 X60.894 Y133.511 E182.76311
G1 X60.894 Y134.058 E182.78786
G1 X70.942 Y144.106 E183.43097
G1 X70.395 Y144.106 E183.45572
G1 X60.894 Y134.605 E184.06383
G1 X60.894 Y135.152 E184.08859
G1 X69.848 Y144.106 E184.66169
G1 X69.301 Y144.106 E184.68644
G1 X60.894 Y135.699 E185.22454
G1 X60.894 Y136.246 E185.24929
G1 X68.754 Y144.106 E185.75239
G1 X68.207 Y144.106 E185.77714
G1 X60.894 Y136.793 E186.24523
G1 X60.894 Y137.340 E186.26998
G1 X67.660 Y144.106 E186.70306
G1 X67.114 Y144.106 E186.72782
G1 X60.894 Y137.886 E187.12589
G1 X60.894 Y138.433 E187.15065
G1 X66.567 Y144.106 E187.51372
G1 X66.020 Y144.106 E187.53847
G1 X60.894 Y138.980 E187.86654
G1 X60.894 Y139.527 E187.89130
G1 X65.473 Y144.106 E188.18436
G1 X64.926 Y144.106 E188.20911
G1 X60.894 Y140.074 E188.46717
G1 X60.894 Y140.621 E188.49192
G1 X64.379 Y144.106 E188.71498
G1 X63.832 Y144.106 E188.73973
G1 X60.894 Y141.168 E188.92778
G1 X60.894 Y141.715 E188.95254
G1 X63.285 Y144.106 E189.10558
G1 X62.739 Y144.106 E189.13033
G1 X60.894 Y142.261 E189.24837
G1 X60.894 Y142.808 E189.27313
G1 X62.192 Y144.106 E189.35616
G1 X61.645 Y144.106 E189.38092
G1 X60.894 Y143.355 E189.42895
G1 X60.894 Y143.902 E189.45370
G1 X61.098 Y144.106 E189.46673
M104 S180 ; set temperature
M140 S60 ; wait for bed temperature to be reached
G1 Z0.500 F9000.000
G1 X99.307 Y144.307 F9000.000
G1 X60.693 Y144.307 E191.35992 F3000.000
G1 X60.693 Y105.693 E193.25312
G1 X99.307 Y105.693 E195.14632
G1 X99.307 Y144.247 E197.03658
G1 X99.800 Y144.800 F9000.000
G1 X60.200 Y144.800 E198.13996 F1500.000
G1 X60.200 Y105.200 E199.24334
G1 X99.800 Y105.200 E200.34672
G1 X99.800 Y144.740 E201.44843
G1 X99.454 Y144.600 F9000.000
G1 X98.526 Y143.832 F9000.000
G1 X98.832 Y143.526 E201.46971 F1200.000
G1 X98.832 Y142.636 E201.51336
G1 X97.636 Y143.832 E201.59637
G1 X96.747 Y143.832 E201.64003
G1 X98.832 Y141.747 E201.78478
G1 X98.832 Y140.857 E201.82843
G1 X95.857 Y143.832 E202.03491
G1 X94.968 Y143.832 E202.07857
G1 X98.832 Y139.968 E202.34679
G1 X98.832 Y139.078 E202.39044
G1 X94.078 Y143.832 E202.72040
G1 X93.189 Y143.832 E202.76405
G1 X98.832 Y138.189 E203.15574
G1 X98.832 Y137.299 E203.19939
G1 X92.299 Y143.832 E203.65282
G1 X91.410 Y143.832 E203.69647
G1 X98.832 Y136.410 E204.21163
G1 X98.832 Y135.520 E204.25529
G1 X90.520 Y143.832 E204.83219
G1 X89.631 Y143.832 E204.87584
G1 X98.832 Y134.631 E205.51447
G1 X98.832 Y133.741 E205.55812
G1 X88.741 Y143.832 E206.25849
G1 X87.852 Y143.832 E206.30215
G1 X98.832 Y132.852 E207.06425
G1 X98.832 Y131.963 E207.10790
G1 X86.963 Y143.832 E207.93174
G1 X86.073 Y143.832 E207.97540
G1 X98.832 Y131.073 E208.86097
G1 X98.832 Y130.184 E208.90462
G1 X85.184 Y143.832 E209.85193
G1 X84.294 Y143.832 E209.89559
G1 X98.832 Y129.294 E210.90463
G1 X98.832 Y128.405 E210.94828
G1 X83.405 Y143.832 E212.01906
G1 X82.515 Y143.832 E212.06272
G1 X98.832 Y127.515 E213.19523
G1 X98.832 Y126.626 E213.23889
G1 X81.626 Y143.832 E214.43314
G1 X80.736 Y143.832 E214.47679
G1 X98.832 Y125.736 E215.73278
G1 X98.832 Y124.847 E215.77643
G1 X79.847 Y143.832 E217.09415
G1 X78.957 Y143.832 E217.13781
G1 X98.832 Y123.957 E218.51727
G1 X98.832 Y123.068 E218.56092
G1 X78.068 Y143.832 E220.00211
G1 X77.178 Y143.832 E220.04576
G1 X98.832 Y122.178 E221.54869
G1 X98.832 Y121.289 E221.59235
G1 X76.289 Y143.832 E223.15701
G1 X75.399 Y143.832 E223.20066
G1 X98.832 Y120.399 E224.82706
G1 X98.832 Y119.510 E224.87072
G1 X74.510 Y143.832 E226.55885
G1 X73.620 Y143.832 E226.60250
G1 X98.832 Y118.620 E228.35237
G1 X98.832 Y117.731 E228.39603
G1 X72.731 Y143.832 E230.20763
G1 X71.841 Y143.832 E230.25129
G1 X98.832 Y116.841 E232.12463
G1 X98.832 Y115.952 E232.16828
G1 X70.952 Y143.832 E234.10336
G1 X70.062 Y143.832 E234.14701
G1 X98.832 Y115.062 E236.14382
G1 X98.832 Y114.173 E236.18748
G1 X69.173 Y143.832 E238.24602
G1 X68.283 Y143.832 E238.28968
G1 X98.832 Y113.283 E240.40996
G1 X98.832 Y112.394 E240.45361
G1 X67.394 Y143.832 E242.63563
G1 X66.505 Y143.832 E242.67928
G1 X98.832 Y111.505 E244.92304
G1 X98.832 Y110.615 E244.96669
G1 X65.615 Y143.832 E247.27218
G1 X64.726 Y143.832 E247.31583
G1 X98.832 Y109.726 E249.68306
G1 X98.832 Y108.836 E249.72671
G1 X63.836 Y143.832 E252.15567
G1 X62.947 Y143.832 E252.19932
G1 X98.832 Y107.947 E254.69002
G1 X98.832 Y107.057 E254.73367
G1 X62.057 Y143.832 E257.28610
G1 X61.188 Y143.812 E257.32878
G1 X98.812 Y106.188 E259.94017
G1 X97.943 Y106.168 E259.98285
G1 X61.168 Y142.943 E262.53528
G1 X61.168 Y142.053 E262.57893
G1 X97.053 Y106.168 E265.06962
G1 X96.164 Y106.168 E265.11328
G1 X61.168 Y141.164 E267.54223
G1 X61.168 Y140.274 E267.58588
G1 X95.274 Y106.168 E269.95310
G1 X94.385 Y106.168 E269.99676
G1 X61.168 Y139.385 E272.30224
G1 X61.168 Y138.495 E272.34589
G1 X93.495 Y106.168 E274.58964
G1 X92.606 Y106.168 E274.63330
G1 X61.168 Y137.606 E276.81531
G1 X61.168 Y136.716 E276.85896
G1 X91.716 Y106.168 E278.97924
G1 X90.827 Y106.168 E279.02289
G1 X61.168 Y135.827 E281.08144
G1 X61.168 Y134.937 E281.12509
G1 X89.937 Y106.168 E283.12190
G1 X89.048 Y106.168 E283.16555
G1 X61.168 Y134.048 E285.10062
G1 X61.168 Y133.159 E285.14427
G1 X88.159 Y106.168 E287.01761
G1 X87.269 Y106.168 E287.06126
G1 X61.168 Y132.269 E288.87286
G1 X61.168 Y131.380 E288.91652
G1 X86.380 Y106.168 E290.66638
G1 X85.490 Y106.168 E290.71003
G1 X61.168 Y130.490 E292.39816
G1 X61.168 Y129.601 E292.44182
G1 X84.601 Y106.168 E294.06821
G1 X83.711 Y106.168 E294.11187
G1 X61.168 Y128.711 E295.67652
G1 X61.168 Y127.822 E295.72018
G1 X82.822 Y106.168 E297.22310
G1 X81.932 Y106.168 E297.26675
G1 X61.168 Y126.932 E298.70794
G1 X61.168 Y126.043 E298.75160
G1 X81.043 Y106.168 E300.13105
G1 X80.153 Y106.168 E300.17470
G1 X61.168 Y125.153 E301.49242
G1 X61.168 Y124.264 E301.53607
